X: 40192
T: Timmy Collins's
R: slide
M: 12/8
K: Gmajor
|:G2B d2g ege d2B|GAB d2g e2f g3|
G2B d2g efg d2a|bag agf efe ed2:|
|:efg efg d2B G2d|efg efg aba agf|
[1 efg efg d2B G2a|bag agf efe ed2:|
[2 bag agf gfe f2d|efg edB A3 AGF||

